my_site/img/clients/fa-brands_stripe.svg

<svg width="103" height="43" viewBox="0 0 103 43" fill="none" xmlns="http://www.w3.org/2000/svg">
<g clip-path="url(#clip0)">
<path d="M26.5552 3.79318L19.5866 5.25682L19.5544 27.9114C19.5544 32.0955 22.741 34.8 26.9736 34.8C29.3233 34.8 31.0454 34.3705 31.9949 33.8614V28.4841C31.0775 28.85 26.5713 30.1546 26.5713 25.9864V15.9318H31.9949V9.91818H26.5713L26.5552 3.79318ZM40.8947 12.0023L40.4602 9.91818H34.2802V34.2909H41.4097V17.8886C43.0996 15.6932 45.9482 16.1227 46.8655 16.4091V9.91818C45.8999 9.58409 42.5685 8.96364 40.8947 12.0023ZM55.7493 0.5L48.5714 2.01136V7.77045L55.7493 6.25909V0.5ZM7.2266 17.0932C7.2266 15.9955 8.16004 15.5659 9.65676 15.55C11.8294 15.55 14.5975 16.2023 16.7702 17.3636V10.7136C14.4044 9.79091 12.0386 9.425 9.67285 9.425C3.8791 9.425 0.0166016 12.4159 0.0166016 17.4114C0.0166016 25.2386 10.8799 23.9659 10.8799 27.3386C10.8799 28.6432 9.73723 29.0727 8.14395 29.0727C5.77816 29.0727 2.72035 28.1023 0.322383 26.8136V33.1773C2.97785 34.3068 5.66551 34.7841 8.12785 34.7841C14.0664 34.7841 18.1543 32.2705 18.1543 27.1796C18.1543 18.7636 7.2266 20.275 7.2266 17.0932ZM103.001 22.3909C103.001 15.1523 99.4599 9.44091 92.6683 9.44091C85.8768 9.44091 81.7407 15.1523 81.7407 22.3432C81.7407 30.8545 86.6171 34.7841 93.5696 34.7841C96.9815 34.7841 99.5404 34.0205 101.488 32.9545V27.6409C99.5404 28.6114 97.3033 29.2 94.4708 29.2C91.6866 29.2 89.2404 28.2295 88.9185 24.9205H102.904C102.936 24.5545 103.001 23.075 103.001 22.3909ZM88.8541 19.7182C88.8541 16.5364 90.8336 15.2 92.6201 15.2C94.3743 15.2 96.2411 16.5364 96.2411 19.7182H88.8541ZM70.6843 9.44091C67.884 9.44091 66.0815 10.7455 65.0836 11.6523L64.7135 9.90227H58.4208V42.4841L65.5665 40.9886L65.5825 33.0023C66.6125 33.75 68.1414 34.7841 70.636 34.7841C75.7538 34.7841 80.421 31.0932 80.421 22.1205C80.4371 13.9114 75.7055 9.44091 70.6843 9.44091ZM68.9783 28.9296C67.3046 28.9296 66.3068 28.325 65.6147 27.5932L65.5665 17.0932C66.3068 16.2818 67.3368 15.6932 68.9783 15.6932C71.5855 15.6932 73.388 18.5886 73.388 22.2795C73.4041 26.0818 71.6338 28.9296 68.9783 28.9296ZM48.5875 34.2909H55.7654V9.91818H48.5875V34.2909Z" fill="#737373"/>
</g>
<defs>
<clipPath id="clip0">
<rect width="103" height="42" fill="white" transform="translate(0 0.5)"/>
</clipPath>
</defs>
</svg>

<svg width="103" height="43" fill="none" xmlns="http://www.w3.org/2000/svg"><g clip-path="url(#clip0)"><path d="M26.555 3.793l-6.968 1.464-.033 22.654c0 4.184 3.187 6.889 7.42 6.889 2.35 0 4.071-.43 5.02-.939v-5.377c-.916.366-5.423 1.67-5.423-2.498V15.932h5.424V9.918H26.57l-.016-6.125zm14.34 8.21l-.435-2.085h-6.18v24.373h7.13V17.889c1.69-2.196 4.538-1.766 5.456-1.48V9.92c-.966-.335-4.297-.955-5.971 2.083zM55.749.5l-7.178 1.511v5.76l7.178-1.512V.5zM7.227 17.093c0-1.098.933-1.527 2.43-1.543 2.172 0 4.94.652 7.113 1.814v-6.65c-2.366-.923-4.731-1.289-7.097-1.289-5.794 0-9.656 2.99-9.656 7.986 0 7.828 10.863 6.555 10.863 9.928 0 1.304-1.143 1.734-2.736 1.734-2.366 0-5.424-.97-7.822-2.26v6.364a20.003 20.003 0 007.806 1.607c5.938 0 10.026-2.514 10.026-7.604 0-8.416-10.927-6.905-10.927-10.087zM103 22.391c0-7.239-3.541-12.95-10.333-12.95-6.791 0-10.927 5.711-10.927 12.902 0 8.512 4.876 12.441 11.829 12.441 3.412 0 5.97-.764 7.918-1.83v-5.313c-1.948.97-4.185 1.559-7.017 1.559-2.784 0-5.23-.97-5.553-4.28h13.986c.032-.366.097-1.845.097-2.53zm-14.147-2.673c0-3.182 1.98-4.518 3.766-4.518 1.754 0 3.621 1.336 3.621 4.518h-7.387zM70.684 9.441c-2.8 0-4.602 1.304-5.6 2.211l-.37-1.75H58.42v32.582l7.146-1.495.016-7.987c1.03.748 2.558 1.782 5.053 1.782 5.118 0 9.785-3.69 9.785-12.663.016-8.21-4.716-12.68-9.737-12.68zM68.978 28.93c-1.673 0-2.671-.605-3.363-1.337l-.048-10.5c.74-.811 1.77-1.4 3.411-1.4 2.608 0 4.41 2.896 4.41 6.586.016 3.803-1.754 6.65-4.41 6.65zm-20.39 5.36h7.177V9.919h-7.178v24.373z" fill="#737373"/></g><defs><clipPath id="clip0"><path fill="#fff" transform="translate(0 .5)" d="M0 0h103v42H0z"/></clipPath></defs></svg>
